svg/UnitedNations-Flags/flag-pg.svg

<?xml version="1.0" encoding="UTF-8" standalone="no"?>
<!-- Created with Inkscape (http://www.inkscape.org/) --><svg height="256" id="svg3362" inkscape:output_extension="org.inkscape.output.svg.inkscape" inkscape:version="0.46" sodipodi:docname="Flag_of_Papua_New_Guinea.svg" sodipodi:version="0.32" version="1.0" width="256" xmlns="http://www.w3.org/2000/svg" xmlns:cc="http://creativecommons.org/ns#" xmlns:dc="http://purl.org/dc/elements/1.1/" xmlns:inkscape="http://www.inkscape.org/namespaces/inkscape" xmlns:rdf="http://www.w3.org/1999/02/22-rdf-syntax-ns#" xmlns:sodipodi="http://sodipodi.sourceforge.net/DTD/sodipodi-0.dtd" xmlns:svg="http://www.w3.org/2000/svg" xmlns:xlink="http://www.w3.org/1999/xlink">
  <metadata>
    <rdf:RDF xmlns:cc="http://web.resource.org/cc/" xmlns:dc="http://purl.org/dc/elements/1.1/" xmlns:rdf="http://www.w3.org/1999/02/22-rdf-syntax-ns#">
      <cc:Work rdf:about="">
        <dc:title></dc:title>
        <dc:description></dc:description>
        <dc:subject>
          <rdf:Bag>
            <rdf:li>unsorted</rdf:li>
          </rdf:Bag>
        </dc:subject>
        <dc:publisher>
          <cc:Agent rdf:about="http://www.openclipart.org/">
            <dc:title>Open Clip Art Library, Source: Wikimedia Commons, Source: Wikimedia Commons, Source: Wikimedia Commons, Source: Wikimedia Commons</dc:title>
          </cc:Agent>
        </dc:publisher>
        <dc:creator>
          <cc:Agent>
            <dc:title></dc:title>
          </cc:Agent>
        </dc:creator>
        <dc:rights>
          <cc:Agent>
            <dc:title></dc:title>
          </cc:Agent>
        </dc:rights>
        <dc:date></dc:date>
        <dc:format>image/svg+xml</dc:format>
        <dc:type rdf:resource="http://purl.org/dc/dcmitype/StillImage"/>
        <cc:license rdf:resource="http://en.wikipedia.org/wiki/Public_domain"/>
        <dc:language>en</dc:language>
      </cc:Work>
    </rdf:RDF>
  </metadata>
  <sodipodi:namedview bordercolor="#666666" borderopacity="1.0" gridtolerance="10.0" guidetolerance="10.0" id="base" inkscape:current-layer="svg3362" inkscape:cx="384" inkscape:cy="288" inkscape:pageopacity="0.0" inkscape:pageshadow="2" inkscape:window-height="709" inkscape:window-width="870" inkscape:window-x="97" inkscape:window-y="227" inkscape:zoom="0.72786458" objecttolerance="10.0" pagecolor="#ffffff" showgrid="false"/>
  <defs id="defs3364">
    <inkscape:perspective id="perspective2786" inkscape:persp3d-origin="384 : 192 : 1" inkscape:vp_x="0 : 288 : 1" inkscape:vp_y="0 : 1000 : 0" inkscape:vp_z="768 : 288 : 1" sodipodi:type="inkscape:persp3d"/>
  </defs>
  <g id="layer1" transform="matrix(0.3333333,0,0,0.3333333,0,32.000019)">
    <rect height="576" id="rect3372" style="fill:#000000;fill-opacity:1;stroke:none;stroke-opacity:1" width="768" x="0" y="0"/>
    <path d="M 0,0 L 768,0 L 768,576 L 0,0 z" id="path4249" style="fill:#ce1126;fill-opacity:1;fill-rule:evenodd;stroke:none;stroke-width:1px;stroke-linecap:butt;stroke-linejoin:miter;stroke-opacity:1"/>
    <path d="M 475.48467,167.35351 C 469.81245,174.67996 456.38967,159.98385 440.30967,159.64818 C 424.22967,159.31251 412.839,175.05784 408.14967,180.41851 C 403.46034,185.77918 388.38534,213.91818 388.72,216.93318 C 389.05467,219.94818 398.10067,208.55851 401.45034,206.54851 C 401.785,210.56851 397.765,215.25885 398.77,216.59851 C 399.775,217.93818 410.49433,208.55851 414.17967,208.22385 C 415.18467,210.90418 412.16967,213.58351 413.17467,217.60351 C 414.51534,218.94318 420.54534,210.90318 424.56534,209.22885 C 425.23467,212.24385 420.88,217.93918 423.22467,221.62351 C 424.9,221.95818 434.949,210.23385 438.29967,208.89318 C 441.65034,207.55251 436.62433,219.94818 438.29967,220.95318 C 441.31467,218.94318 450.69534,208.22284 453.71034,206.88318 C 456.72534,205.54351 453.37567,220.61851 454.71534,220.61851 C 458.39967,217.93818 467.78034,205.20885 468.78534,203.19885 C 469.79034,201.18885 467.78034,222.62851 478.165,234.01918 C 488.54967,245.40985 504.29601,258.47385 505.97034,258.47385 C 507.98034,254.78851 505.30101,247.08418 506.97534,247.41885 C 511.66467,252.44385 520.375,259.81351 522.385,259.81351 C 524.395,259.81351 521.04433,251.77351 523.72467,251.77351 C 529.08534,256.79851 544.495,276.56385 574.645,285.60885 C 572.635,279.91351 568.27933,274.88851 567.94467,272.20918 C 569.95467,272.54385 576.99067,275.89452 578.33034,275.55885 C 579.67,275.22318 563.59,255.45885 564.595,252.77851 C 568.28034,252.44385 569.95567,254.78851 571.29534,253.11318 C 569.62,250.43385 555.55,234.68851 555.55,231.00318 C 555.55,227.31784 559.90567,231.67351 561.24534,231.00318 C 562.585,230.33284 555.88567,216.26284 557.22534,214.58851 C 558.565,212.91418 573.30433,223.63351 576.98967,223.63351 C 580.675,223.63351 577.99467,210.56851 579.67,209.89818 C 581.34534,209.22784 593.74101,216.93318 596.42034,216.93318 C 599.09967,216.93318 598.765,211.23784 599.77,211.90818 C 600.775,212.57851 629.92,241.72351 619.87,275.89351 C 609.82,300.34918 589.72101,313.41418 560.24034,302.69385 C 561.91467,305.37418 577.66,318.43918 594.745,313.74885 C 611.83,309.05851 632.59933,295.65885 630.25467,262.15918 C 627.91,228.65952 616.854,223.96918 615.17967,218.94418 C 613.50534,213.91918 617.86101,220.28385 621.54534,221.62452 C 625.22967,222.96519 620.875,214.58851 619.87,210.90318 C 618.865,207.21784 630.925,218.60851 633.94,219.61351 C 636.955,220.61851 626.905,192.14385 623.89,190.13385 C 620.875,188.12385 626.905,190.80318 628.915,191.47351 C 630.925,192.14385 610.48933,160.31851 606.13467,160.31851 C 601.78,160.31851 609.819,158.64318 612.16467,158.64318 C 614.51034,158.64318 588.71601,137.87284 584.36034,137.87284 C 580.00467,137.87284 593.739,132.51217 595.07967,132.17751 C 597.42534,132.51217 565.26534,115.09251 536.455,132.51217 C 534.77967,131.17351 550.02351,120.62101 550.525,116.09851 C 550.69284,114.92568 545.50101,112.41318 545.16534,111.07351 C 544.82967,109.73385 553.20534,105.71386 553.54,102.69886 C 551.53,100.01853 547.84467,101.02352 545.83467,100.3542 C 545.33317,97.841696 552.87067,91.643861 552.20034,88.964531 C 551.69784,87.457031 546.16933,86.954531 544.82967,87.959531 C 543.49,88.964531 548.34817,80.924531 547.51,78.579866 C 546.84067,77.574866 544.16034,78.245201 541.48,78.914531 C 539.80467,78.579866 550.19034,64.174196 548.18034,62.164196 C 546.17034,60.154196 518.02933,76.903526 507.64467,95.663861 C 497.26,114.42418 505.30101,129.49918 503.96034,135.86385 C 502.61967,142.22851 500.94433,148.59418 496.58967,148.59418 C 492.235,148.59418 482.18601,141.89385 478.83534,138.54418 C 475.48467,135.19452 474.81534,132.84885 470.125,131.50918 C 465.43467,130.16952 454.71534,134.18952 450.69534,134.52418 C 446.67534,134.85885 430.93,131.50918 429.925,132.51418 C 428.92,133.51918 445.33467,139.54918 449.02,141.55918 C 452.70534,143.56918 453.04101,146.24952 455.72034,147.92385 C 458.39967,149.59818 483.52467,156.96885 475.48467,167.35351 z M 573.64,214.58851 C 581.68,222.62851 635.95,258.80851 635.95,303.02851 C 635.95,347.24851 596.41933,345.90985 585.02967,344.56918 C 597.76,355.28851 646,353.27851 646,303.02851 C 646,258.80851 583.69,214.58851 575.65,210.56851 C 567.61,206.54851 565.6,206.54851 573.64,214.58851 z" id="path3348" style="fill:#fcd116"/>
    <use height="576" id="use2392" transform="translate(-87.582,-104.504)" width="768" x="0" xlink:href="#use2390" y="0"/>
    <use height="576" id="use2394" transform="translate(-88,112.504)" width="768" x="0" xlink:href="#use2392" y="0"/>
    <use height="576" id="use2390" transform="translate(87.582,-160)" width="768" x="0" xlink:href="#polygon5131" y="0"/>
    <polygon id="polygon5131" points="192.54,176.394 200.94,205.234 229.958,205.234 207.048,222.86 215.449,250.898 192.54,233.273 169.631,250.096 178.031,222.86 155.122,205.234 183.376,205.234 192.54,176.394 " style="fill:#ffffff" transform="translate(-0.122,266.606)"/>
    <polygon id="polygon5133" points="192.54,176.394 200.94,205.234 229.958,205.234 207.048,222.86 215.449,250.898 192.54,233.273 169.631,250.096 178.031,222.86 155.122,205.234 183.376,205.234 192.54,176.394 " style="fill:#ffffff" transform="matrix(0.5,0,0,0.5,135.439,293.551)"/>
  </g>
</svg>

<svg xmlns="http://www.w3.org/2000/svg" xmlns:xlink="http://www.w3.org/1999/xlink" viewBox="0 0 256 256"><g transform="matrix(.33333 0 0 .33333 0 32)"><path d="m0 0h768v576h-768z"/><path d="m0 0h768v576l-768-576" fill="#ce1126" fill-rule="evenodd"/><path d="m475.48 167.35c-5.672 7.326-19.09-7.37-35.18-7.705-16.08-.336-27.471 15.41-32.16 20.77-4.689 5.361-19.764 33.5-19.43 36.515.335 3.02 9.381-8.375 12.73-10.385.335 4.02-3.685 8.71-2.68 10.05 1 1.34 11.724-8.04 15.41-8.375 1 2.68-2.01 5.36-1 9.38 1.341 1.34 7.371-6.7 11.391-8.375.669 3.02-3.685 8.71-1.341 12.395 1.675.335 11.724-11.39 15.07-12.73 3.351-1.341-1.675 11.06 0 12.06 3.01-2.01 12.396-12.73 15.411-14.07 3.02-1.34-.335 13.735 1.01 13.735 3.684-2.68 13.06-15.41 14.07-17.42 1-2.01-1 19.43 9.38 30.82 10.385 11.391 26.13 24.455 27.805 24.455 2.01-3.685-.669-11.39 1-11.06 4.689 5.03 13.4 12.395 15.41 12.395 2.01 0-1.341-8.04 1.34-8.04 5.361 5.03 20.77 24.79 50.92 33.835-2.01-5.695-6.366-10.72-6.7-13.4 2.01.335 9.05 3.685 10.386 3.35 1.34-.336-14.74-20.1-13.735-22.78 3.685-.335 5.361 2.01 6.7.335-1.675-2.679-15.745-18.425-15.745-22.11 0-3.685 4.356.67 5.695 0 1.34-.67-5.36-14.74-4.02-16.415 1.34-1.674 16.08 9.04 19.764 9.04 3.685 0 1-13.06 2.68-13.735 1.675-.67 14.07 7.03 16.75 7.03 2.679 0 2.345-5.695 3.35-5.03 1 .67 30.15 29.815 20.1 63.985-10.05 24.456-30.15 37.521-59.63 26.8 1.674 2.68 17.42 15.745 34.505 11.06 17.09-4.69 37.854-18.09 35.51-51.59-2.345-33.5-13.401-38.19-15.08-43.22-1.674-5.02 2.681 1.34 6.366 2.68 3.684 1.341-.67-7.04-1.675-10.721-1-3.685 11.05 7.705 14.07 8.71 3.01 1-7.04-27.47-10.05-29.48-3.01-2.01 3.01.669 5.02 1.34 2.01.67-18.426-31.16-22.78-31.16-4.355 0 3.684-1.675 6.03-1.675 2.346 0-23.449-20.77-27.804-20.77-4.356 0 9.379-5.361 10.719-5.695 2.346.335-29.814-17.09-58.62.335-1.675-1.339 13.569-11.891 14.07-16.414.168-1.173-5.02-3.685-5.36-5.03-.336-1.34 8.04-5.36 8.375-8.375-2.01-2.68-5.695-1.675-7.705-2.345-.501-2.513 7.04-8.71 6.366-11.39-.502-1.507-6.03-2.01-7.371-1-1.34 1 3.519-7.03 2.68-9.38-.669-1-3.35-.335-6.03.335-1.675-.335 8.71-14.74 6.7-16.75-2.01-2.01-30.15 14.739-40.536 33.5-10.385 18.76-2.344 33.835-3.684 40.2-1.341 6.365-3.02 12.73-7.371 12.73-4.355 0-14.404-6.7-17.754-10.05-3.351-3.35-4.02-5.695-8.71-7.04-4.69-1.34-15.41 2.68-19.43 3.02-4.02.335-19.765-3.02-20.77-2.01-1 1 15.41 7.03 19.09 9.04 3.685 2.01 4.02 4.69 6.7 6.365 2.679 1.674 27.804 9.05 19.764 19.43m98.16 47.24c8.04 8.04 62.31 44.22 62.31 88.44 0 44.22-39.531 42.881-50.92 41.541 12.73 10.719 60.97 8.709 60.97-41.541 0-44.22-62.31-88.44-70.35-92.46-8.04-4.02-10.05-4.02-2.01 4.02" fill="#fcd116"/><use height="576" id="0" transform="translate(-87.58-104.5)" width="768" xlink:href="#1"/><use height="576" transform="translate(-88 112.5)" width="768" xlink:href="#0"/><use height="576" id="1" transform="translate(87.58-160)" width="768" xlink:href="#2"/><path id="2" transform="translate(-.122 266.61)" fill="#fff" d="m192.54 176.39l8.4 28.84h29.02l-22.91 17.63 8.4 28.04-22.91-17.63-22.91 16.83 8.4-27.24-22.91-17.63h28.26l9.16-28.84"/><use transform="matrix(.5 0 0 .5 135.5 160.25)" xlink:href="#2"/></g></svg>
